X: 36324
T: Sean Bearnach The Rapparee
R: reel
M: 4/4
K: Fmajor
Ad|:cF (3FFF EFAB|cFdF cAGA|dG (3GGG FGAc|dGeG dcAd|
cF (3FFF EFAB|cFdF cAGE|FCDE FGAc|dcAG F4:|
|:f2 ag fcAc|(3ddd ba gafd|cdfd cdfg|agfa g2 ag|
f2 ag fcAc|(3ddd ba gafd|cAGA FGAc|dcAG F4:|

